src/raw/woods/icon_24.svg

<svg width="24" height="24" viewBox="0 0 24 24" fill="none" xmlns="http://www.w3.org/2000/svg">
<path d="M7.37422 1.08401C7.30573 0.981292 7.21294 0.89707 7.10409 0.83882C6.99523 0.780569 6.87368 0.750092 6.75022 0.750092C6.62676 0.750092 6.50521 0.780569 6.39636 0.83882C6.28751 0.89707 6.19472 0.981292 6.12622 1.08401L2.25022 7.50001H4.50022L1.60022 11.628C1.53512 11.742 1.50107 11.871 1.50147 12.0023C1.50187 12.1335 1.53671 12.2624 1.6025 12.376C1.6683 12.4895 1.76274 12.5839 1.87641 12.6495C1.99007 12.7151 2.11897 12.7498 2.25022 12.75H11.2502C11.3816 12.75 11.5106 12.7154 11.6244 12.6499C11.7382 12.5843 11.8328 12.49 11.8987 12.3764C11.9646 12.2628 11.9995 12.1339 12 12.0025C12.0004 11.8712 11.9664 11.7421 11.9012 11.628L9.00022 7.50001H11.2502L7.37422 1.08401Z" stroke="#71717A" stroke-width="1.5" stroke-linecap="round" stroke-linejoin="round"/>
<path d="M6.75 12.75V17.332" stroke="#71717A" stroke-width="1.5" stroke-linecap="round" stroke-linejoin="round"/>
<path d="M19.2622 1.023C19.2061 0.939052 19.1302 0.870236 19.0412 0.822643C18.9521 0.775051 18.8527 0.750153 18.7517 0.750153C18.6508 0.750153 18.5514 0.775051 18.4623 0.822643C18.3733 0.870236 18.2973 0.939052 18.2412 1.023L15.0692 6H16.9102L14.3322 9.582C14.2787 9.67531 14.2507 9.78105 14.251 9.88861C14.2513 9.99618 14.2798 10.1018 14.3339 10.1948C14.3879 10.2878 14.4654 10.365 14.5587 10.4186C14.6519 10.4721 14.7577 10.5002 14.8652 10.5H22.6352C22.7428 10.5002 22.8485 10.4721 22.9418 10.4186C23.0351 10.365 23.1126 10.2878 23.1666 10.1948C23.2206 10.1018 23.2492 9.99618 23.2495 9.88861C23.2498 9.78105 23.2218 9.67531 23.1682 9.582L20.5922 6H22.4332L19.2622 1.023Z" stroke="#71717A" stroke-width="1.5" stroke-linecap="round" stroke-linejoin="round"/>
<path d="M18.751 10.5V14.535" stroke="#71717A" stroke-width="1.5" stroke-linecap="round" stroke-linejoin="round"/>
<path d="M0.805176 18C3.63075 17.0181 6.70222 17.0012 9.53841 17.952C12.3589 18.8975 14.7883 20.7468 16.4505 23.2127" stroke="#71717A" stroke-width="1.5" stroke-linecap="round" stroke-linejoin="round"/>
<path d="M23.2499 14.32C22.7559 14.2733 22.2559 14.25 21.7499 14.25C17.7764 14.245 13.9502 15.7467 11.0415 18.4501" stroke="#71717A" stroke-width="1.5" stroke-linecap="round" stroke-linejoin="round"/>
</svg>

<svg xmlns="http://www.w3.org/2000/svg" width="24" height="24" fill="none" viewBox="0 0 24 24">
  <path stroke="#3F3F46" stroke-linecap="round" stroke-linejoin="round" stroke-width="1.5"
    d="M7.374 1.084a.75.75 0 0 0-1.248 0L2.25 7.5H4.5l-2.9 4.128a.75.75 0 0 0 .65 1.122h9a.75.75 0 0 0 .651-1.122L9.001 7.5h2.25L7.373 1.084ZM6.75 12.75v4.582M19.262 1.023a.614.614 0 0 0-1.02 0L15.068 6h1.841l-2.578 3.582a.613.613 0 0 0 .533.918h7.77a.614.614 0 0 0 .533-.918L20.592 6h1.841l-3.17-4.977ZM18.751 10.5v4.035M.805 18a13.517 13.517 0 0 1 15.652 5.222" />
  <path stroke="#3F3F46" stroke-linecap="round" stroke-linejoin="round" stroke-width="1.5"
    d="M23.25 14.32a15.93 15.93 0 0 0-1.5-.07 15.7 15.7 0 0 0-10.726 4.216" />
</svg>
